X:1
T:Da quei morti
T:Da quei morti
T:Marc'Antonio Tornioli
T:Source : Canzonette spirituali a tre voci---Libro Primo---Venetia---Ang.Gardano---1607. Editor : André Vierendeels (21/06/16).
T:Notes : Original clefs :C1, C1, F4
T:©
T:©
T:©
C:Marc'Antonio Tornioli
Z:©
%%score [ 1 2 3 ]
L:1/8
Q:1/4=103
M:4/4
K:C
V:1 treble nm="Soprano 1" snm="S 1"
V:2 treble nm="Soprano 2" snm="S 2"
V:3 bass nm="Bass" snm="B"
V:1
 E8 | E4 E4 | E4 A4 | D8 | E4 e2 dc | BBcd e2 e2 | B2 cB A4- | A2 ^G^F G4 | A4 E2 FG | AAGF E4- | %10
w: Da|quei mor-|ti'oc- chi|tuo-|i, vi- va pie-|ta sa- et- ta'i co- ria|no- * * *||i, vi- va pie-|ta sa- et- ta'i co-|
w: E|quan- to|Mor- te|cru-|da, av- vien che|piu, spie- ta- ta, em- pia|li chiu- * *||da, av- vien che|piu, spie- ta- ta, em-|
 E2 F2 GA B/A/B/G/ | A8 |[M:2/4] G4 :: B2 c2 |[M:4/4] ^c4 d2 e2 | d8 | ^c4 =c4- | c2 B2 A4 | %18
w: * ria no- * * * * *||i.|On- de'in|vec- ce di|sguar-|di, man-|* dan pie-|
w: * pia li _ chiu- * * *||da.-|Tan- to|n'a- pro- no'il|per-|to, piu|_ di pie-|
 d4 B4 | B6 c2- | c2 B2 A4 | B8 | z8 | e6 d2 | c4 d4- | d2 c2 B4 | A8 :| %27
w: to- si|dar- *||di,||man- dan|pie- to-|* si dar-|di.|
w: to- so'af-|fet- *||to||piu di|pie- to-|* so'af- fet-|to.|
V:2
 C8 | B,4 B,4 | C2 C2 C4- | C4 B,4 | C4 c2 BA | GGAB c2 c2 | d2 cd e3 c | B8 | A4 C2 DE | FFED C4 | %10
w: Da|quei mor-|ti'oc- chi tuo-||i, vi- va pie-|ta sa- et- ta'i co- ria|no- * * * *||i, vi- va pie-|ta sa- et- ta'i co-|
w: E|quan- to|Mor- te cru-||da, av- vien che|piu, spie- ta- ta, em- pia|li chiu- * * *||da, av- vien che|piu, spie- ta- ta, em-|
 D2 D2 E3 D | ^F2 G4 F2 |[M:2/4] G4 :: G2 A2- |[M:4/4] A2 G2 AF A2- | A2 ^G^F G4 | A8 | z4 F4- | %18
w: * ria no- *||i.|On- de'in|_ vec- ce di sguar-||di|man-|
w: pia li chiu- *||da,|Tan- to|_ n'a- pro- n'il per-||to,|piu|
 F2 E2 D4 | G4 G4 | ^F2 G3 F/E/ F2 | G4 d4- | d2 c2 B4 | c4 A4 | A6 B2 | ^G2 A3 G/^F/ G2 | A8 :| %27
w: * dan pie-|to- si|dar- * * * *|di, man-|* dan pie-|to- si|dar- *||di.|
w: _ di pie-|to- so'af-|fet- * * * *|to, piu|_ di pie-|to- so'af-|fet- *||to.|
V:3
 A,8 | A,4 ^G,4 | A,4 F,4 | G,8 | C,8 | z4 C2 B,A, | G,G,A,B, C2 A,2 | E,8 | A,,8 | z4 E,2 F,G, | %10
w: Da|quei mor-|ti'oc- chi|tuo-|i,|vi- va pie-|ta sa- et- ta'i co- ria|no-|i,|vi- va pie-|
w: E|quan- to|Mor- te|cru-|da,|av- vien che|piu, spie- ta- ta'em- pia li|chiu-|da,|av- vien che|
 A,A,G,F, E,2 G,2 | D,8 |[M:2/4] G,,4 :: G,2 F,2 |[M:4/4] E,4 D,2 C,2 | B,,8 | A,,8 | F,6 E,2 | %18
w: ta sa- et- ta'i co- ria|no-|i.|On- de'in|vec- ce di|sguar-|di,|man- dan|
w: piu, spie- ta- ta'em- pia li|chiu-|da,|Tan- to|n'a- pro- no'il|per-|to,|piu di|
 D,4 G,4 | E,8 | D,8 | G,,8 | G,6 F,2 | E,4 F,4- | F,4 D,4 | E,8 | A,,8 :| %27
w: pie- to-|si|dar-|di,|man- dan|pie- to-|* si|dar-|di.|
w: pie- to-|so'af-|fet-|to,|piu di|pie- to-|* so'af-|fet-|to.|

